actions/48/media-playback-pause.svg

<?xml version="1.0" encoding="UTF-8" standalone="no"?>
<!-- Created with Inkscape (http://www.inkscape.org/) -->

<svg
   xmlns:svg="http://www.w3.org/2000/svg"
   xmlns="http://www.w3.org/2000/svg"
   xmlns:xlink="http://www.w3.org/1999/xlink"
   version="1.1"
   width="48"
   height="48"
   id="svg2436">
  <defs
     id="defs2438">
    <radialGradient
       cx="605.71429"
       cy="486.64789"
       r="117.14286"
       fx="605.71429"
       fy="486.64789"
       id="radialGradient2454"
       xlink:href="#linearGradient5060"
       gradientUnits="userSpaceOnUse"
       gradientTransform="matrix(-0.01610806,0,0,0.01519228,23.854663,14.740232)" />
    <radialGradient
       cx="605.71429"
       cy="486.64789"
       r="117.14286"
       fx="605.71429"
       fy="486.64789"
       id="radialGradient2452"
       xlink:href="#linearGradient5060"
       gradientUnits="userSpaceOnUse"
       gradientTransform="matrix(0.01610806,0,0,0.01519228,12.217173,14.740232)" />
    <linearGradient
       x1="302.85715"
       y1="366.64789"
       x2="302.85715"
       y2="609.50507"
       id="linearGradient2450"
       xlink:href="#linearGradient5048"
       gradientUnits="userSpaceOnUse"
       gradientTransform="matrix(0.01610806,0,0,0.01519228,12.214003,14.740232)" />
    <linearGradient
       x1="12.35"
       y1="13.958842"
       x2="12.35"
       y2="44.971333"
       id="linearGradient2484"
       xlink:href="#linearGradient5106"
       gradientUnits="userSpaceOnUse"
       gradientTransform="matrix(1.0426124,0,0,1.0259979,22.123737,-1.1239411)" />
    <linearGradient
       x1="10.440458"
       y1="9.965703"
       x2="10.728143"
       y2="57.84119"
       id="linearGradient2481"
       xlink:href="#linearGradient2782"
       gradientUnits="userSpaceOnUse"
       gradientTransform="matrix(1.0408371,0,0,1.0332076,20.490446,-1.577786)" />
    <radialGradient
       cx="605.71429"
       cy="486.64789"
       r="117.14286"
       fx="605.71429"
       fy="486.64789"
       id="radialGradient2464"
       xlink:href="#linearGradient5060"
       gradientUnits="userSpaceOnUse"
       gradientTransform="matrix(-0.01610806,0,0,0.01519228,23.854663,14.740232)" />
    <linearGradient
       id="linearGradient5060">
      <stop
         id="stop5062"
         style="stop-color:black;stop-opacity:1"
         offset="0" />
      <stop
         id="stop5064"
         style="stop-color:black;stop-opacity:0"
         offset="1" />
    </linearGradient>
    <radialGradient
       cx="605.71429"
       cy="486.64789"
       r="117.14286"
       fx="605.71429"
       fy="486.64789"
       id="radialGradient2462"
       xlink:href="#linearGradient5060"
       gradientUnits="userSpaceOnUse"
       gradientTransform="matrix(0.01610806,0,0,0.01519228,12.217173,14.740232)" />
    <linearGradient
       id="linearGradient5048">
      <stop
         id="stop5050"
         style="stop-color:black;stop-opacity:0"
         offset="0" />
      <stop
         id="stop5056"
         style="stop-color:black;stop-opacity:1"
         offset="0.5" />
      <stop
         id="stop5052"
         style="stop-color:black;stop-opacity:0"
         offset="1" />
    </linearGradient>
    <linearGradient
       x1="302.85715"
       y1="366.64789"
       x2="302.85715"
       y2="609.50507"
       id="linearGradient2460"
       xlink:href="#linearGradient5048"
       gradientUnits="userSpaceOnUse"
       gradientTransform="matrix(0.01610806,0,0,0.01519228,12.214003,14.740232)" />
    <linearGradient
       id="linearGradient5106">
      <stop
         id="stop5108"
         style="stop-color:#729fcf;stop-opacity:1"
         offset="0" />
      <stop
         id="stop5110"
         style="stop-color:#386ea6;stop-opacity:1"
         offset="1" />
    </linearGradient>
    <linearGradient
       x1="12.35"
       y1="13.958842"
       x2="12.35"
       y2="44.971333"
       id="linearGradient2474"
       xlink:href="#linearGradient5106"
       gradientUnits="userSpaceOnUse"
       gradientTransform="matrix(1.0426124,0,0,1.0259981,0.1237342,-1.1239408)" />
    <linearGradient
       id="linearGradient2782">
      <stop
         id="stop2784"
         style="stop-color:white;stop-opacity:1"
         offset="0" />
      <stop
         id="stop2786"
         style="stop-color:white;stop-opacity:0"
         offset="1" />
    </linearGradient>
    <linearGradient
       x1="10.440458"
       y1="9.965703"
       x2="10.728143"
       y2="57.84119"
       id="linearGradient2471"
       xlink:href="#linearGradient2782"
       gradientUnits="userSpaceOnUse"
       gradientTransform="matrix(1.0408371,0,0,1.0332075,-1.5095624,-1.577785)" />
  </defs>
  <g
     id="layer1">
    <g
       transform="matrix(1.793298,0,0,1.8411918,2.6562256,3.8113964)"
       id="g2623"
       style="stroke-width:1.14820182;stroke-miterlimit:4;stroke-dasharray:none;display:inline">
      <rect
         width="7.7778931"
         height="3.6895525"
         x="14.146971"
         y="20.310448"
         id="rect4173"
         style="opacity:0.40206185;fill:url(#linearGradient2450);fill-opacity:1;fill-rule:nonzero;stroke:none;stroke-width:1.14820182;marker:none;visibility:visible;display:inline;overflow:visible" />
      <path
         d="m 21.924864,20.310574 c 0,0 0,3.689349 0,3.689349 0.829525,0.0069 2.005388,-0.826595 2.005388,-1.844912 0,-1.018316 -0.925688,-1.844436 -2.005388,-1.844437 z"
         id="path5058"
         style="opacity:0.40206185;fill:url(#radialGradient2452);fill-opacity:1;fill-rule:nonzero;stroke:none;stroke-width:1.14820182;marker:none;visibility:visible;display:inline;overflow:visible" />
      <path
         d="m 14.14697,20.310574 c 0,0 0,3.689349 0,3.689349 -0.829525,0.0069 -2.005388,-0.826595 -2.005388,-1.844912 0,-1.018316 0.925688,-1.844436 2.005388,-1.844437 z"
         id="path5018"
         style="opacity:0.40206185;fill:url(#radialGradient2454);fill-opacity:1;fill-rule:nonzero;stroke:none;stroke-width:1.14820182;marker:none;visibility:visible;display:inline;overflow:visible" />
    </g>
    <path
       d="m 26.496453,2.4964535 0,42.0070935 17.007093,0 0,-42.0070935 -17.007093,0 z"
       id="path2645"
       style="fill:url(#linearGradient2484);fill-opacity:1;fill-rule:evenodd;stroke:#204a87;stroke-width:0.99290687;stroke-linecap:round;stroke-linejoin:round;stroke-miterlimit:4;stroke-opacity:1;stroke-dasharray:none;stroke-dashoffset:0;marker:none;visibility:visible;display:inline;overflow:visible" />
    <path
       d="m 27.550715,3.5507145 0,39.8985705 14.89857,-0.04727 0,-39.8513045 -14.89857,0 z"
       id="path2647"
       style="opacity:0.4;fill:none;stroke:url(#linearGradient2481);stroke-width:1.10142958;stroke-linecap:round;stroke-linejoin:miter;stroke-miterlimit:4;stroke-opacity:0.97254902;stroke-dasharray:none;stroke-dashoffset:0;marker:none;visibility:visible;display:inline;overflow:visible" />
    <g
       transform="matrix(1.793298,0,0,1.8411918,-19.343774,3.8113964)"
       id="g2659"
       style="stroke-width:1.14820182;stroke-miterlimit:4;stroke-dasharray:none;display:inline">
      <rect
         width="7.7778931"
         height="3.6895525"
         x="14.146971"
         y="20.310448"
         id="rect2661"
         style="opacity:0.40206185;fill:url(#linearGradient2460);fill-opacity:1;fill-rule:nonzero;stroke:none;stroke-width:1.14820182;marker:none;visibility:visible;display:inline;overflow:visible" />
      <path
         d="m 21.924864,20.310574 c 0,0 0,3.689349 0,3.689349 0.829525,0.0069 2.005388,-0.826595 2.005388,-1.844912 0,-1.018316 -0.925688,-1.844436 -2.005388,-1.844437 z"
         id="path2663"
         style="opacity:0.40206185;fill:url(#radialGradient2462);fill-opacity:1;fill-rule:nonzero;stroke:none;stroke-width:1.14820182;marker:none;visibility:visible;display:inline;overflow:visible" />
      <path
         d="m 14.14697,20.310574 c 0,0 0,3.689349 0,3.689349 -0.829525,0.0069 -2.005388,-0.826595 -2.005388,-1.844912 0,-1.018316 0.925688,-1.844436 2.005388,-1.844437 z"
         id="path2665"
         style="opacity:0.40206185;fill:url(#radialGradient2464);fill-opacity:1;fill-rule:nonzero;stroke:none;stroke-width:1.14820182;marker:none;visibility:visible;display:inline;overflow:visible" />
    </g>
    <path
       d="m 4.4964534,2.4964535 0,42.0070935 17.0070926,0 0,-42.0070935 -17.0070926,0 z"
       id="path7449"
       style="fill:url(#linearGradient2474);fill-opacity:1;fill-rule:evenodd;stroke:#204a87;stroke-width:0.99290687;stroke-linecap:round;stroke-linejoin:round;stroke-miterlimit:4;stroke-opacity:1;stroke-dasharray:none;stroke-dashoffset:0;marker:none;visibility:visible;display:inline;overflow:visible" />
    <path
       d="m 5.550715,3.5507152 0,39.8985708 14.898571,-0.04727 0,-39.8512978 -14.898571,0 z"
       id="path7453"
       style="opacity:0.4;fill:none;stroke:url(#linearGradient2471);stroke-width:1.1014297;stroke-linecap:round;stroke-linejoin:miter;stroke-miterlimit:4;stroke-opacity:0.97254902;stroke-dasharray:none;stroke-dashoffset:0;marker:none;visibility:visible;display:inline;overflow:visible" />
  </g>
</svg>

<?xml version="1.0" encoding="UTF-8" standalone="no"?>
<!-- Created with Inkscape (http://www.inkscape.org/) -->
<svg
   xmlns:dc="http://purl.org/dc/elements/1.1/"
   xmlns:cc="http://creativecommons.org/ns#"
   xmlns:rdf="http://www.w3.org/1999/02/22-rdf-syntax-ns#"
   xmlns:svg="http://www.w3.org/2000/svg"
   xmlns="http://www.w3.org/2000/svg"
   xmlns:xlink="http://www.w3.org/1999/xlink"
   xmlns:sodipodi="http://sodipodi.sourceforge.net/DTD/sodipodi-0.dtd"
   xmlns:inkscape="http://www.inkscape.org/namespaces/inkscape"
   width="48px"
   height="48px"
   id="svg2436"
   sodipodi:version="0.32"
   inkscape:version="0.46"
   sodipodi:docname="media-playback-pause.svg"
   inkscape:output_extension="org.inkscape.output.svg.inkscape">
  <defs
     id="defs2438">
    <radialGradient
       inkscape:collect="always"
       xlink:href="#linearGradient5060"
       id="radialGradient2454"
       gradientUnits="userSpaceOnUse"
       gradientTransform="matrix(-1.6108063e-2,0,0,1.5192275e-2,23.854663,14.740232)"
       cx="605.71429"
       cy="486.64789"
       fx="605.71429"
       fy="486.64789"
       r="117.14286" />
    <radialGradient
       inkscape:collect="always"
       xlink:href="#linearGradient5060"
       id="radialGradient2452"
       gradientUnits="userSpaceOnUse"
       gradientTransform="matrix(1.6108063e-2,0,0,1.5192275e-2,12.217173,14.740232)"
       cx="605.71429"
       cy="486.64789"
       fx="605.71429"
       fy="486.64789"
       r="117.14286" />
    <linearGradient
       inkscape:collect="always"
       xlink:href="#linearGradient5048"
       id="linearGradient2450"
       gradientUnits="userSpaceOnUse"
       gradientTransform="matrix(1.6108063e-2,0,0,1.5192275e-2,12.214003,14.740232)"
       x1="302.85715"
       y1="366.64789"
       x2="302.85715"
       y2="609.50507" />
    <linearGradient
       inkscape:collect="always"
       xlink:href="#linearGradient5106"
       id="linearGradient2484"
       gradientUnits="userSpaceOnUse"
       gradientTransform="matrix(1.0426124,0,0,1.0259979,22.123737,-1.1239411)"
       x1="12.35"
       y1="13.958842"
       x2="12.35"
       y2="44.971333" />
    <linearGradient
       inkscape:collect="always"
       xlink:href="#linearGradient2782"
       id="linearGradient2481"
       gradientUnits="userSpaceOnUse"
       gradientTransform="matrix(1.0408371,0,0,1.0332076,20.490446,-1.577786)"
       x1="10.440458"
       y1="9.965703"
       x2="10.728143"
       y2="57.84119" />
    <radialGradient
       inkscape:collect="always"
       xlink:href="#linearGradient5060"
       id="radialGradient2464"
       gradientUnits="userSpaceOnUse"
       gradientTransform="matrix(-1.6108063e-2,0,0,1.5192275e-2,23.854663,14.740232)"
       cx="605.71429"
       cy="486.64789"
       fx="605.71429"
       fy="486.64789"
       r="117.14286" />
    <linearGradient
       id="linearGradient5060"
       inkscape:collect="always">
      <stop
         id="stop5062"
         offset="0"
         style="stop-color:black;stop-opacity:1;" />
      <stop
         id="stop5064"
         offset="1"
         style="stop-color:black;stop-opacity:0;" />
    </linearGradient>
    <radialGradient
       inkscape:collect="always"
       xlink:href="#linearGradient5060"
       id="radialGradient2462"
       gradientUnits="userSpaceOnUse"
       gradientTransform="matrix(1.6108063e-2,0,0,1.5192275e-2,12.217173,14.740232)"
       cx="605.71429"
       cy="486.64789"
       fx="605.71429"
       fy="486.64789"
       r="117.14286" />
    <linearGradient
       id="linearGradient5048">
      <stop
         id="stop5050"
         offset="0"
         style="stop-color:black;stop-opacity:0;" />
      <stop
         style="stop-color:black;stop-opacity:1;"
         offset="0.5"
         id="stop5056" />
      <stop
         id="stop5052"
         offset="1"
         style="stop-color:black;stop-opacity:0;" />
    </linearGradient>
    <linearGradient
       inkscape:collect="always"
       xlink:href="#linearGradient5048"
       id="linearGradient2460"
       gradientUnits="userSpaceOnUse"
       gradientTransform="matrix(1.6108063e-2,0,0,1.5192275e-2,12.214003,14.740232)"
       x1="302.85715"
       y1="366.64789"
       x2="302.85715"
       y2="609.50507" />
    <linearGradient
       id="linearGradient5106">
      <stop
         id="stop5108"
         offset="0"
         style="stop-color:#729fcf;stop-opacity:1;" />
      <stop
         id="stop5110"
         offset="1"
         style="stop-color:#386ea6;stop-opacity:1;" />
    </linearGradient>
    <linearGradient
       inkscape:collect="always"
       xlink:href="#linearGradient5106"
       id="linearGradient2474"
       gradientUnits="userSpaceOnUse"
       gradientTransform="matrix(1.0426124,0,0,1.0259981,0.1237342,-1.1239408)"
       x1="12.35"
       y1="13.958842"
       x2="12.35"
       y2="44.971333" />
    <linearGradient
       id="linearGradient2782">
      <stop
         id="stop2784"
         offset="0"
         style="stop-color:white;stop-opacity:1;" />
      <stop
         id="stop2786"
         offset="1"
         style="stop-color:white;stop-opacity:0;" />
    </linearGradient>
    <linearGradient
       inkscape:collect="always"
       xlink:href="#linearGradient2782"
       id="linearGradient2471"
       gradientUnits="userSpaceOnUse"
       gradientTransform="matrix(1.0408371,0,0,1.0332075,-1.5095624,-1.577785)"
       x1="10.440458"
       y1="9.965703"
       x2="10.728143"
       y2="57.84119" />
  </defs>
  <sodipodi:namedview
     id="base"
     pagecolor="#ffffff"
     bordercolor="#666666"
     borderopacity="1.0"
     inkscape:pageopacity="0.0"
     inkscape:pageshadow="2"
     inkscape:zoom="7"
     inkscape:cx="24"
     inkscape:cy="24"
     inkscape:current-layer="layer1"
     showgrid="true"
     inkscape:grid-bbox="true"
     inkscape:document-units="px"
     inkscape:window-width="673"
     inkscape:window-height="720"
     inkscape:window-x="0"
     inkscape:window-y="93" />
  <metadata
     id="metadata2441">
    <rdf:RDF>
      <cc:Work
         rdf:about="">
        <dc:format>image/svg+xml</dc:format>
        <dc:type
           rdf:resource="http://purl.org/dc/dcmitype/StillImage" />
      </cc:Work>
    </rdf:RDF>
  </metadata>
  <g
     id="layer1"
     inkscape:label="Layer 1"
     inkscape:groupmode="layer">
    <g
       id="g2623"
       transform="matrix(1.793298,0,0,1.8411918,2.6562256,3.8113964)"
       style="display:inline;stroke-width:1.14820181999999993;stroke-miterlimit:4;stroke-dasharray:none">
      <rect
         style="opacity:0.40206185;fill:url(#linearGradient2450);fill-opacity:1;fill-rule:nonzero;stroke:none;stroke-width:1.14820182;stroke-linecap:round;stroke-linejoin:miter;marker:none;marker-start:none;marker-mid:none;marker-end:none;stroke-miterlimit:4;stroke-dasharray:none;stroke-dashoffset:0;stroke-opacity:1;visibility:visible;display:inline;overflow:visible"
         id="rect4173"
         width="7.7778931"
         height="3.6895525"
         x="14.146971"
         y="20.310448" />
      <path
         style="opacity:0.40206185;fill:url(#radialGradient2452);fill-opacity:1;fill-rule:nonzero;stroke:none;stroke-width:1.14820182;stroke-linecap:round;stroke-linejoin:miter;marker:none;marker-start:none;marker-mid:none;marker-end:none;stroke-miterlimit:4;stroke-dasharray:none;stroke-dashoffset:0;stroke-opacity:1;visibility:visible;display:inline;overflow:visible"
         d="M 21.924864,20.310574 C 21.924864,20.310574 21.924864,23.999923 21.924864,23.999923 C 22.754389,24.006869 23.930252,23.173328 23.930252,22.155011 C 23.930252,21.136695 23.004564,20.310575 21.924864,20.310574 z"
         id="path5058"
         sodipodi:nodetypes="cccc" />
      <path
         sodipodi:nodetypes="cccc"
         id="path5018"
         d="M 14.14697,20.310574 C 14.14697,20.310574 14.14697,23.999923 14.14697,23.999923 C 13.317445,24.006869 12.141582,23.173328 12.141582,22.155011 C 12.141582,21.136695 13.06727,20.310575 14.14697,20.310574 z"
         style="opacity:0.40206185;fill:url(#radialGradient2454);fill-opacity:1;fill-rule:nonzero;stroke:none;stroke-width:1.14820182;stroke-linecap:round;stroke-linejoin:miter;marker:none;marker-start:none;marker-mid:none;marker-end:none;stroke-miterlimit:4;stroke-dasharray:none;stroke-dashoffset:0;stroke-opacity:1;visibility:visible;display:inline;overflow:visible" />
    </g>
    <path
       style="display:inline;fill:url(#linearGradient2484);fill-opacity:1;fill-rule:evenodd;stroke:#204a87;stroke-width:0.99290687000000000;stroke-linecap:round;stroke-linejoin:round;marker:none;marker-start:none;marker-mid:none;marker-end:none;stroke-miterlimit:4;stroke-dasharray:none;stroke-dashoffset:0;stroke-opacity:1;visibility:visible;overflow:visible"
       d="M 26.496453,2.4964535 L 26.496453,44.503547 L 43.503546,44.503547 L 43.503546,2.4964535 L 26.496453,2.4964535 z"
       id="path2645"
       inkscape:r_cx="true"
       inkscape:r_cy="true" />
    <path
       inkscape:r_cy="true"
       inkscape:r_cx="true"
       id="path2647"
       d="M 27.550715,3.5507145 L 27.550715,43.449285 L 42.449285,43.402019 L 42.449285,3.5507145 L 27.550715,3.5507145 z"
       style="display:inline;opacity:0.4;fill:none;fill-opacity:1;fill-rule:evenodd;stroke:url(#linearGradient2481);stroke-width:1.10142958000000002;stroke-linecap:round;stroke-linejoin:miter;marker:none;marker-start:none;marker-mid:none;marker-end:none;stroke-miterlimit:4;stroke-dasharray:none;stroke-dashoffset:0;stroke-opacity:0.97254902000000021;visibility:visible;overflow:visible"
       sodipodi:nodetypes="ccccc" />
    <g
       style="display:inline;stroke-width:1.14820181999999993;stroke-miterlimit:4;stroke-dasharray:none"
       id="g2659"
       transform="matrix(1.793298,0,0,1.8411918,-19.343774,3.8113964)">
      <rect
         style="opacity:0.40206185;fill:url(#linearGradient2460);fill-opacity:1;fill-rule:nonzero;stroke:none;stroke-width:1.14820182;stroke-linecap:round;stroke-linejoin:miter;marker:none;marker-start:none;marker-mid:none;marker-end:none;stroke-miterlimit:4;stroke-dasharray:none;stroke-dashoffset:0;stroke-opacity:1;visibility:visible;display:inline;overflow:visible"
         id="rect2661"
         width="7.7778931"
         height="3.6895525"
         x="14.146971"
         y="20.310448" />
      <path
         style="opacity:0.40206185;fill:url(#radialGradient2462);fill-opacity:1;fill-rule:nonzero;stroke:none;stroke-width:1.14820182;stroke-linecap:round;stroke-linejoin:miter;marker:none;marker-start:none;marker-mid:none;marker-end:none;stroke-miterlimit:4;stroke-dasharray:none;stroke-dashoffset:0;stroke-opacity:1;visibility:visible;display:inline;overflow:visible"
         d="M 21.924864,20.310574 C 21.924864,20.310574 21.924864,23.999923 21.924864,23.999923 C 22.754389,24.006869 23.930252,23.173328 23.930252,22.155011 C 23.930252,21.136695 23.004564,20.310575 21.924864,20.310574 z"
         id="path2663"
         sodipodi:nodetypes="cccc" />
      <path
         sodipodi:nodetypes="cccc"
         id="path2665"
         d="M 14.14697,20.310574 C 14.14697,20.310574 14.14697,23.999923 14.14697,23.999923 C 13.317445,24.006869 12.141582,23.173328 12.141582,22.155011 C 12.141582,21.136695 13.06727,20.310575 14.14697,20.310574 z"
         style="opacity:0.40206185;fill:url(#radialGradient2464);fill-opacity:1;fill-rule:nonzero;stroke:none;stroke-width:1.14820182;stroke-linecap:round;stroke-linejoin:miter;marker:none;marker-start:none;marker-mid:none;marker-end:none;stroke-miterlimit:4;stroke-dasharray:none;stroke-dashoffset:0;stroke-opacity:1;visibility:visible;display:inline;overflow:visible" />
    </g>
    <path
       style="display:inline;fill:url(#linearGradient2474);fill-opacity:1;fill-rule:evenodd;stroke:#204a87;stroke-width:0.99290687000000000;stroke-linecap:round;stroke-linejoin:round;marker:none;marker-start:none;marker-mid:none;marker-end:none;stroke-miterlimit:4;stroke-dasharray:none;stroke-dashoffset:0;stroke-opacity:1;visibility:visible;overflow:visible"
       d="M 4.4964534,2.4964535 L 4.4964534,44.503547 L 21.503546,44.503547 L 21.503546,2.4964535 L 4.4964534,2.4964535 z"
       id="path7449"
       inkscape:r_cx="true"
       inkscape:r_cy="true" />
    <path
       inkscape:r_cy="true"
       inkscape:r_cx="true"
       id="path7453"
       d="M 5.550715,3.5507152 L 5.550715,43.449286 L 20.449286,43.402013 L 20.449286,3.5507152 L 5.550715,3.5507152 z"
       style="display:inline;opacity:0.4;fill:none;fill-opacity:1;fill-rule:evenodd;stroke:url(#linearGradient2471);stroke-width:1.10142969999999996;stroke-linecap:round;stroke-linejoin:miter;marker:none;marker-start:none;marker-mid:none;marker-end:none;stroke-miterlimit:4;stroke-dasharray:none;stroke-dashoffset:0;stroke-opacity:0.97254902000000021;visibility:visible;overflow:visible"
       sodipodi:nodetypes="ccccc" />
  </g>
</svg>
